cloudphone-mobile/gear/svg/phone-flat.svg

<svg xmlns="http://www.w3.org/2000/svg" preserveAspectRatio="xMidYMid" width="724" height="178" viewBox="0 0 724 178"><defs><style>.cls-1{fill:#f7f8fa}.cls-1,.cls-2,.cls-3{fill-rule:evenodd}.cls-2{fill:#fff}.cls-3{fill:#f1f2f4}.cls-1.cls-filter{filter:url(#AI_blur);fill:#ccc}.cls-safari-fix{display:none;transform:translate(0,2px);-webkit-transform:translate(0,2px);fill:#000;fill-opacity:.1}</style><filter id="AI_blur"><feGaussianBlur stdDeviation="3"/><feOffset in="blur" dy="4" result="offsetBlur"/><feMerge><feMergeNode in="offsetBlur"/><feMergeNode in="SourceGraphic"/></feMerge></filter></defs><path class="cls-1 cls-filter" d="M715.976 157c-.296 6.168-6.532 9.011-23.339 9.011H242.819 30.458c-17.067 0-22.678-2.932-22.427-9.3v-19.493c-.001-.094-.008-.184-.006-.279l.006-.205V136h.059c.008-.081.01-.159.02-.24.01-.075.015-.148.025-.223.053-.378.122-.766.207-1.165.016-.074.037-.151.054-.226a22.477 22.477 0 0 1 .364-1.384c.095-.322.198-.651.31-.985.038-.113.073-.224.112-.338.154-.445.318-.9.499-1.367.023-.061.05-.124.074-.186.16-.41.33-.829.509-1.256l.194-.459c.155-.361.316-.729.482-1.102.067-.151.133-.301.202-.453.233-.514.472-1.034.724-1.569 7.468-15.853 17.625-33.955 38.075-61.665 19.34-26.205 31.335-38.51 40.96-47.697 8.682-8.288 14.528-11.693 32.735-11.693H599.96c18.206 0 24.92 3.405 33.593 11.693 9.574 9.149 22.154 21.605 41.467 47.771 20.524 27.807 29.965 45.675 37.444 61.591.246.522.477 1.031.701 1.532l.194.443c.157.359.308.714.453 1.062l.19.462c.147.364.286.722.419 1.074.042.111.087.225.127.335.342.93.626 1.815.852 2.659l.069.277a19.233 19.233 0 0 1 .278 1.255c.066.358.12.709.16 1.05.003.033.009.067.013.1.026.241.031.471.042.704H716v21h-.024z"/><path class="cls-1 cls-safari-fix" d="M715.976 157c-.296 6.168-6.532 9.011-23.339 9.011H242.819 30.458c-17.067 0-22.678-2.932-22.427-9.3v-19.493c-.001-.094-.008-.184-.006-.279l.006-.205V136h.059c.008-.081.01-.159.02-.24.01-.075.015-.148.025-.223.053-.378.122-.766.207-1.165.016-.074.037-.151.054-.226a22.477 22.477 0 0 1 .364-1.384c.095-.322.198-.651.31-.985.038-.113.073-.224.112-.338.154-.445.318-.9.499-1.367.023-.061.05-.124.074-.186.16-.41.33-.829.509-1.256l.194-.459c.155-.361.316-.729.482-1.102.067-.151.133-.301.202-.453.233-.514.472-1.034.724-1.569 7.468-15.853 17.625-33.955 38.075-61.665 19.34-26.205 31.335-38.51 40.96-47.697 8.682-8.288 14.528-11.693 32.735-11.693H599.96c18.206 0 24.92 3.405 33.593 11.693 9.574 9.149 22.154 21.605 41.467 47.771 20.524 27.807 29.965 45.675 37.444 61.591.246.522.477 1.031.701 1.532l.194.443c.157.359.308.714.453 1.062l.19.462c.147.364.286.722.419 1.074.042.111.087.225.127.335.342.93.626 1.815.852 2.659l.069.277a19.233 19.233 0 0 1 .278 1.255c.066.358.12.709.16 1.05.003.033.009.067.013.1.026.241.031.471.042.704H716v21h-.024z"/><path d="M715.976 157c-.296 6.168-6.532 9.011-23.339 9.011H242.819 30.458c-17.067 0-22.678-2.932-22.427-9.3v-19.493c-.001-.094-.008-.184-.006-.279l.006-.205V136h.059c.008-.081.01-.159.02-.24.01-.075.015-.148.025-.223.053-.378.122-.766.207-1.165.016-.074.037-.151.054-.226a22.477 22.477 0 0 1 .364-1.384c.095-.322.198-.651.31-.985.038-.113.073-.224.112-.338.154-.445.318-.9.499-1.367.023-.061.05-.124.074-.186.16-.41.33-.829.509-1.256l.194-.459c.155-.361.316-.729.482-1.102.067-.151.133-.301.202-.453.233-.514.472-1.034.724-1.569 7.468-15.853 17.625-33.955 38.075-61.665 19.34-26.205 31.335-38.51 40.96-47.697 8.682-8.288 14.528-11.693 32.735-11.693H599.96c18.206 0 24.92 3.405 33.593 11.693 9.574 9.149 22.154 21.605 41.467 47.771 20.524 27.807 29.965 45.675 37.444 61.591.246.522.477 1.031.701 1.532l.194.443c.157.359.308.714.453 1.062l.19.462c.147.364.286.722.419 1.074.042.111.087.225.127.335.342.93.626 1.815.852 2.659l.069.277a19.233 19.233 0 0 1 .278 1.255c.066.358.12.709.16 1.05.003.033.009.067.013.1.026.241.031.471.042.704H716v21h-.024z" class="cls-1"/><path d="M599.96 3.992c18.206 0 24.92 3.405 33.593 11.693 9.574 9.149 22.154 21.605 41.467 47.771 20.524 27.807 29.965 45.675 37.444 61.591 6.837 14.55 5.483 20.987-19.827 20.987H242.819 30.458c-25.31 0-25.445-6.437-18.592-20.987 7.468-15.853 17.625-33.955 38.075-61.665 19.34-26.205 31.335-38.51 40.96-47.697 8.682-8.288 14.528-11.693 32.735-11.693H599.96z" class="cls-2"/><path d="M132.094 7.929L50.351 138.674h610.364L582.589 7.929H132.094zM253.031 159h-122a3 3 0 1 1 0-6h122a3 3 0 1 1 0 6zM103.486 19.867c-2.189 0-3.467-.718-2.858-1.6.607-.879 2.857-1.587 5.028-1.587 2.171 0 3.455.708 2.866 1.587-.591.882-2.847 1.6-5.036 1.6zm2.028 4.884c-.812 1.217-3.885 2.211-6.858 2.211s-4.694-.994-3.848-2.211c.841-1.211 3.902-2.186 6.841-2.186 2.94 0 4.672.975 3.865 2.186zM71.065 67.488c-4.926 0-7.647-1.814-6.091-4.031 1.539-2.194 6.695-3.956 11.529-3.956 4.835 0 7.591 1.762 6.143 3.956-1.463 2.217-6.654 4.031-11.581 4.031zm-34.036 49.995c-3.668 0-5.592-1.51-4.307-3.36 1.275-1.836 5.234-3.313 8.85-3.313 3.617 0 5.563 1.477 4.339 3.313-1.234 1.85-5.214 3.36-8.882 3.36z" class="cls-3"/></svg>

<svg xmlns="http://www.w3.org/2000/svg" xmlns:xlink="http://www.w3.org/1999/xlink" preserveAspectRatio="xMidYMid"
     width="724" height="178" viewBox="0 0 724 178">
    <defs>
        <style>
            .cls-1 {
            fill: #f7f8fa;
            }

            .cls-1,
            .cls-2,
            .cls-3 {
            fill-rule: evenodd;
            }

            .cls-2 {
            fill: #fff;
            }

            .cls-3 {
            fill: #f1f2f4;
            }

            .cls-1.cls-filter {
            filter: url(#AI_blur);
            fill: #ccc;
            }
            .cls-safari-fix{
            display:none;
            transform:translate(0,2px);
            -webkit-transform: translate(0,2px);
            fill: #000000;
            fill-opacity:0.1;
            }
        </style>
        <filter id="AI_blur">
            <feGaussianBlur stdDeviation="3"></feGaussianBlur>
            <feOffset in="blur" dx="0" dy="4" result="offsetBlur"/>
            <feMerge>
                <feMergeNode in="offsetBlur"/>
                <feMergeNode in="SourceGraphic"/>
            </feMerge>
        </filter>
    </defs>
    <g>
        <path class="cls-1 cls-filter"
              d="M715.976,157.000 C715.680,163.168 709.444,166.011 692.637,166.011 C684.690,166.011 433.512,166.011 242.819,166.011 C242.819,166.011 53.424,166.011 30.458,166.011 C13.391,166.011 7.780,163.079 8.031,156.711 L8.031,137.218 C8.030,137.124 8.023,137.034 8.025,136.939 C8.026,136.871 8.029,136.803 8.031,136.734 L8.031,136.000 L8.090,136.000 C8.098,135.919 8.100,135.841 8.110,135.760 C8.120,135.685 8.125,135.612 8.135,135.537 C8.188,135.159 8.257,134.771 8.342,134.372 C8.358,134.298 8.379,134.221 8.396,134.146 C8.471,133.818 8.556,133.483 8.651,133.141 C8.685,133.016 8.722,132.889 8.760,132.762 C8.855,132.440 8.958,132.111 9.070,131.777 C9.108,131.664 9.143,131.553 9.182,131.439 C9.336,130.994 9.500,130.539 9.681,130.072 C9.704,130.011 9.731,129.948 9.755,129.886 C9.915,129.476 10.085,129.057 10.264,128.630 C10.327,128.479 10.393,128.325 10.458,128.171 C10.613,127.810 10.774,127.442 10.940,127.069 C11.007,126.918 11.073,126.768 11.142,126.616 C11.375,126.102 11.614,125.582 11.866,125.047 C19.334,109.194 29.491,91.092 49.941,63.382 C69.281,37.177 81.276,24.872 90.901,15.685 C99.583,7.397 105.429,3.992 123.636,3.992 C124.915,3.992 125.601,3.992 125.949,3.992 C126.204,3.992 126.280,3.992 126.267,3.992 C130.118,3.992 175.613,3.992 599.960,3.992 C618.166,3.992 624.880,7.397 633.553,15.685 C643.127,24.834 655.707,37.290 675.020,63.456 C695.544,91.263 704.985,109.131 712.464,125.047 C712.710,125.569 712.941,126.078 713.165,126.579 C713.231,126.729 713.294,126.875 713.359,127.022 C713.516,127.381 713.667,127.736 713.812,128.084 C713.876,128.239 713.940,128.394 714.002,128.546 C714.149,128.910 714.288,129.268 714.421,129.620 C714.463,129.731 714.508,129.845 714.548,129.955 C714.890,130.885 715.174,131.770 715.400,132.614 C715.424,132.707 715.446,132.799 715.469,132.891 C715.554,133.225 715.629,133.552 715.693,133.873 C715.712,133.964 715.730,134.056 715.747,134.146 C715.813,134.504 715.867,134.855 715.907,135.196 C715.910,135.229 715.916,135.263 715.920,135.296 C715.946,135.537 715.951,135.767 715.962,136.000 L716.000,136.000 L716.000,157.000 L715.976,157.000 Z"/>
        <path class="cls-1 cls-safari-fix"
              d="M715.976,157.000 C715.680,163.168 709.444,166.011 692.637,166.011 C684.690,166.011 433.512,166.011 242.819,166.011 C242.819,166.011 53.424,166.011 30.458,166.011 C13.391,166.011 7.780,163.079 8.031,156.711 L8.031,137.218 C8.030,137.124 8.023,137.034 8.025,136.939 C8.026,136.871 8.029,136.803 8.031,136.734 L8.031,136.000 L8.090,136.000 C8.098,135.919 8.100,135.841 8.110,135.760 C8.120,135.685 8.125,135.612 8.135,135.537 C8.188,135.159 8.257,134.771 8.342,134.372 C8.358,134.298 8.379,134.221 8.396,134.146 C8.471,133.818 8.556,133.483 8.651,133.141 C8.685,133.016 8.722,132.889 8.760,132.762 C8.855,132.440 8.958,132.111 9.070,131.777 C9.108,131.664 9.143,131.553 9.182,131.439 C9.336,130.994 9.500,130.539 9.681,130.072 C9.704,130.011 9.731,129.948 9.755,129.886 C9.915,129.476 10.085,129.057 10.264,128.630 C10.327,128.479 10.393,128.325 10.458,128.171 C10.613,127.810 10.774,127.442 10.940,127.069 C11.007,126.918 11.073,126.768 11.142,126.616 C11.375,126.102 11.614,125.582 11.866,125.047 C19.334,109.194 29.491,91.092 49.941,63.382 C69.281,37.177 81.276,24.872 90.901,15.685 C99.583,7.397 105.429,3.992 123.636,3.992 C124.915,3.992 125.601,3.992 125.949,3.992 C126.204,3.992 126.280,3.992 126.267,3.992 C130.118,3.992 175.613,3.992 599.960,3.992 C618.166,3.992 624.880,7.397 633.553,15.685 C643.127,24.834 655.707,37.290 675.020,63.456 C695.544,91.263 704.985,109.131 712.464,125.047 C712.710,125.569 712.941,126.078 713.165,126.579 C713.231,126.729 713.294,126.875 713.359,127.022 C713.516,127.381 713.667,127.736 713.812,128.084 C713.876,128.239 713.940,128.394 714.002,128.546 C714.149,128.910 714.288,129.268 714.421,129.620 C714.463,129.731 714.508,129.845 714.548,129.955 C714.890,130.885 715.174,131.770 715.400,132.614 C715.424,132.707 715.446,132.799 715.469,132.891 C715.554,133.225 715.629,133.552 715.693,133.873 C715.712,133.964 715.730,134.056 715.747,134.146 C715.813,134.504 715.867,134.855 715.907,135.196 C715.910,135.229 715.916,135.263 715.920,135.296 C715.946,135.537 715.951,135.767 715.962,136.000 L716.000,136.000 L716.000,157.000 L715.976,157.000 Z"
                />
        <path d="M715.976,157.000 C715.680,163.168 709.444,166.011 692.637,166.011 C684.690,166.011 433.512,166.011 242.819,166.011 C242.819,166.011 53.424,166.011 30.458,166.011 C13.391,166.011 7.780,163.079 8.031,156.711 L8.031,137.218 C8.030,137.124 8.023,137.034 8.025,136.939 C8.026,136.871 8.029,136.803 8.031,136.734 L8.031,136.000 L8.090,136.000 C8.098,135.919 8.100,135.841 8.110,135.760 C8.120,135.685 8.125,135.612 8.135,135.537 C8.188,135.159 8.257,134.771 8.342,134.372 C8.358,134.298 8.379,134.221 8.396,134.146 C8.471,133.818 8.556,133.483 8.651,133.141 C8.685,133.016 8.722,132.889 8.760,132.762 C8.855,132.440 8.958,132.111 9.070,131.777 C9.108,131.664 9.143,131.553 9.182,131.439 C9.336,130.994 9.500,130.539 9.681,130.072 C9.704,130.011 9.731,129.948 9.755,129.886 C9.915,129.476 10.085,129.057 10.264,128.630 C10.327,128.479 10.393,128.325 10.458,128.171 C10.613,127.810 10.774,127.442 10.940,127.069 C11.007,126.918 11.073,126.768 11.142,126.616 C11.375,126.102 11.614,125.582 11.866,125.047 C19.334,109.194 29.491,91.092 49.941,63.382 C69.281,37.177 81.276,24.872 90.901,15.685 C99.583,7.397 105.429,3.992 123.636,3.992 C124.915,3.992 125.601,3.992 125.949,3.992 C126.204,3.992 126.280,3.992 126.267,3.992 C130.118,3.992 175.613,3.992 599.960,3.992 C618.166,3.992 624.880,7.397 633.553,15.685 C643.127,24.834 655.707,37.290 675.020,63.456 C695.544,91.263 704.985,109.131 712.464,125.047 C712.710,125.569 712.941,126.078 713.165,126.579 C713.231,126.729 713.294,126.875 713.359,127.022 C713.516,127.381 713.667,127.736 713.812,128.084 C713.876,128.239 713.940,128.394 714.002,128.546 C714.149,128.910 714.288,129.268 714.421,129.620 C714.463,129.731 714.508,129.845 714.548,129.955 C714.890,130.885 715.174,131.770 715.400,132.614 C715.424,132.707 715.446,132.799 715.469,132.891 C715.554,133.225 715.629,133.552 715.693,133.873 C715.712,133.964 715.730,134.056 715.747,134.146 C715.813,134.504 715.867,134.855 715.907,135.196 C715.910,135.229 715.916,135.263 715.920,135.296 C715.946,135.537 715.951,135.767 715.962,136.000 L716.000,136.000 L716.000,157.000 L715.976,157.000 Z"
              class="cls-1"/>
        <path d="M599.960,3.992 C618.166,3.992 624.880,7.397 633.553,15.685 C643.127,24.834 655.707,37.290 675.020,63.456 C695.544,91.263 704.985,109.131 712.464,125.047 C719.301,139.597 717.947,146.034 692.637,146.034 C684.690,146.034 433.512,146.034 242.819,146.034 C242.819,146.034 53.424,146.034 30.458,146.034 C5.148,146.034 5.013,139.597 11.866,125.047 C19.334,109.194 29.491,91.092 49.941,63.382 C69.281,37.177 81.276,24.872 90.901,15.685 C99.583,7.397 105.429,3.992 123.636,3.992 C142.552,3.992 32.408,3.992 599.960,3.992 Z"
              class="cls-2"/>
        <path d="M132.094,7.929 L50.351,138.674 L660.715,138.674 L582.589,7.929 L132.094,7.929 Z" class="cls-3"/>
        <path d="M253.031,159.000 L131.031,159.000 C129.374,159.000 128.031,157.657 128.031,156.000 C128.031,154.343 129.374,153.000 131.031,153.000 L253.031,153.000 C254.688,153.000 256.031,154.343 256.031,156.000 C256.031,157.657 254.688,159.000 253.031,159.000 ZM103.486,19.867 C101.297,19.867 100.019,19.149 100.628,18.267 C101.235,17.388 103.485,16.680 105.656,16.680 C107.827,16.680 109.111,17.388 108.522,18.267 C107.931,19.149 105.675,19.867 103.486,19.867 ZM105.514,24.751 C104.702,25.968 101.629,26.962 98.656,26.962 C95.683,26.962 93.962,25.968 94.808,24.751 C95.649,23.540 98.710,22.565 101.649,22.565 C104.589,22.565 106.321,23.540 105.514,24.751 ZM71.065,67.488 C66.139,67.488 63.418,65.674 64.974,63.457 C66.513,61.263 71.669,59.501 76.503,59.501 C81.338,59.501 84.094,61.263 82.646,63.457 C81.183,65.674 75.992,67.488 71.065,67.488 ZM37.029,117.483 C33.361,117.483 31.437,115.973 32.722,114.123 C33.997,112.287 37.956,110.810 41.572,110.810 C45.189,110.810 47.135,112.287 45.911,114.123 C44.677,115.973 40.697,117.483 37.029,117.483 Z"
              class="cls-3"/>
    </g>
</svg>
